!!!COM: Vivaldi, Antonio Lucio
!!!CDT: 1678/03/04-1741/08/28
!!!OPR: 12 Sonatas for Violin and Basso continuo
!!!OTL: Sonata in C minor, op. @{OPS}, no. @{ONM} (@{SCT})
!!!OPS: 2
!!!ONM: 7
!!!OMV: 1. Preludio
!!!SCT: RV 8
!!!SCA: Antonio Vivaldi: Thematisch-systematisches Verzeichnis seiner Werke (Ryom-Verzeichnis)
!!!OMD: Andante
!!!key: c
**kern	**fb	**kern
*part2	*	*part1
*staff2	*	*staff1
*ICklav	*	*ICstr
*Icemba	*	*Ivioln
*I"Basso continuo	*	*I"Violino
*I'bc	*	*I'v
*clefF4	*	*clefG2
*k[b-e-]	*	*k[b-e-]
*c:	*	*c:
*M3/2	*	*M3/2
*MM188	*	*MM188
=1	=1	=1
1.r	.	2r
.	.	2.cc\
.	.	4ee-y\
=2	=2	=2
1.r	.	2dd\
.	.	4.g/
.	.	8aa-X\
.	.	4.gg\
.	.	8ff\
=3	=3	=3
2r	.	4.ee-y\
.	.	8dd\
2.C/	.	2cc\
.	.	2r
4E-y\	.	.
=4	=4	=4
2D\	7	1.r
4.GG/	n	.
8A-X\	6	.
4.G\	n	.
8F\	.	.
=5	=5	=5
4.E-y\	6	2r
8D\	.	.
2C/	.	2gg\
2r	.	2cc\
=6	=6	=6
8F\L	-	[1.aa-X
8A-X\	.	.
8G\	.	.
8A-X\J	.	.
8F\L	.	.
8A-X\	.	.
8E-y\	.	.
8A-X\J	.	.
8D\L	.	.
8A-X\	.	.
8C\	.	.
8A-X\J	.	.
!!LO:LB:g=original
=7	=7	=7
1.BB-X	7-r 5	8aa-y\L]
.	.	(8gg\
.	.	8ff\
.	.	8ee-y\J
.	.	8dd\L
.	.	8cc\J
.	.	4b-y\)
.	.	(4aa-X\
.	.	8b-y\L
.	.	8aa-X\J)
=8	=8	=8
8E-y\L	.	[1.gg
8G\	.	.
8F\	.	.
8G\J	.	.
8E-y\L	.	.
8G\	.	.
8D\	.	.
8G\J	.	.
8C\L	.	.
8G\	.	.
8BB-y\	.	.
8G\J	.	.
=9	=9	=9
1.AA-X	7 5	8gg\L]
.	.	(8ff\
.	.	8ee-y\
.	.	8dd\J
.	.	8cc\L
.	.	8bn\
.	.	8cc\
.	.	8dd\J
.	.	8ee-y\L
.	.	8ff\
.	.	8gg\
.	.	8aa-X\J)
=10	=10	=10
8D\L	5-r	[1.ff\
8F\	.	.
8E-y\	.	.
8F\J	.	.
8D\L	.	.
8F\	.	.
8C\	.	.
8F\J	.	.
8BBn\L	6	.
8F\	.	.
8AA-X\	6	.
8F\J	.	.
=11	=11	=11
1.GG/	7 5 n	8ff\L]
.	.	(8ee-y\
.	.	8dd\
.	.	8cc\J
.	.	8bn/L
.	.	8a/J
.	.	4g/)
.	.	(4ff\
.	.	8bn\L
.	.	8ff\J)
!!LO:LB:g=original
=12	=12	=12
2C/	.	(8ee-y\L
.	.	8dd\
.	.	8cc\)
.	.	8ee-y\J
2D\	6	(8ff\L
.	.	8ee-y\
.	.	8dd\)
.	.	8ff\J
2E-y\	.	(8gg\L
.	.	8ff\
.	.	8ee-y\)
.	.	8gg\J
=13	=13	=13
2FF/	-	(8aa-X\L
.	.	8ff\)
.	.	(8dd\
.	.	8ff\J)
2r	.	(8bn/L
.	.	8dd/)
.	.	(8f/
.	.	8a-X/J)
2r	.	(8d/L
.	.	8f/)
.	.	(8Bn/
.	.	8d/J)
=14	=14	=14
2GG/	n	2G/
4r	.	4r
4GG/	.	4dd\
4BBn/	.	(8gg\L
.	.	8ff\)
4GG/	.	(8ee-y\
.	.	8dd\J)
=15	=15	=15
4C/	.	4ee-y\
4F\	6 5	(8dd\L
.	.	8cc\J)
2G\	5 4	2.bn\t
2GG/	n	.
.	.	4cc\
=16	=16	=16
8C\L	.	[1.cc\
8e-y\	.	.
8d\	.	.
8e-y\J	.	.
8c\L	.	.
8e-y\	.	.
8B-y\	.	.
8e-X\J	.	.
8An\L	.	.
8e-y\	.	.
8G\	.	.
8e-y\J	.	.
!!LO:LB:g=original
=17	=17	=17
1.F#X\	5	4cc\]
.	.	[4aa\
.	.	8aa\L]
.	.	(8gg\
.	.	8ff#X\
.	.	8een\J
.	.	8dd\L
.	.	8cc\
.	.	8b-y\
.	.	8a\J)
=18	=18	=18
1.G\	.	8b-y\L
.	.	8bb-y\
.	.	8aa\
.	.	8bb-y\J
.	.	8gg\L
.	.	8bb-y\
.	.	8ff\
.	.	8bb-y\J
.	.	8een\L
.	.	8bb-y\
.	.	8dd\
.	.	8bb-y\J
=19	=19	=19
8A\L	#	2cc#X\
8en\	.	.
8d\	.	.
8en\J	.	.
8c#X\L	.	(2.cc#y\t
8en\	.	.
8B-y\	.	.
8en\J	.	.
8A\L	.	.
8en\	.	.
8G\	.	8bn\L
8en\J	.	8cc#X\J)
=20	=20	=20
1.F\	6	8dd\L
.	.	8aa\
.	.	8gg\
.	.	8aa\J
.	.	8ff\L
.	.	8aa\
.	.	8een\
.	.	8aa\J
.	.	8dd\L
.	.	8aa\
.	.	8cc\
.	.	8aa\J
!!LO:LB:g=original
=21	=21	=21
8G\L	n	2bn\
8d\	.	.
8c\	.	.
8d\J	.	.
8Bn\L	.	(2.b\t
8d\	.	.
8A-X\	.	.
8d\J	.	.
8G\L	.	.
8d\	.	.
8F\	.	8a/L
8d\J	.	8b/J)
=22	=22	=22
1.E-y\	6	8cc\L
.	.	8gg\
.	.	8ff\
.	.	8gg\J
.	.	8ee-y\L
.	.	8gg\
.	.	8dd\
.	.	8gg\J
.	.	8cc\L
.	.	8gg\
.	.	8b-y\
.	.	8gg\J
=23	=23	=23
8F\L	-	[1.a-X/
8A-X\	.	.
8G\	.	.
8A-X\J	.	.
8F\L	.	.
8A-X\	.	.
8E-y\	.	.
8A-X\J	.	.
8D\L	.	.
8A-X\	.	.
8C\	.	.
8A-X\J	.	.
=24	=24	=24
1.BB-y/	7-r 5	8a-y/L]
.	.	(8g/
.	.	8f/
.	.	8g/J
.	.	8a-X\L
.	.	8b-y\
.	.	8cc\
.	.	8dd\J
.	.	8ee-y\L
.	.	8ff\
.	.	8gg\
.	.	8aa-X\J)
=25	=25	=25
4E-y\	.	4gg\
4A-X\	6 5	8ff\L
.	.	8ee-y\J
2B-y\	5 4	2.dd\t
2BB-y/	3	.
.	.	4ee-y\
!!LO:LB:g=original
=26	=26	=26
8E-y\L	.	[1.ee-y\
8g\	.	.
8f\	.	.
8g\J	.	.
8e-y\L	.	.
8g\	.	.
8d\	.	.
8g\J	.	.
8c\L	.	.
8g\	.	.
8B-y\	.	.
8g\J	.	.
=27	=27	=27
1.An\	.	8ee-y\L]
.	.	8gg\
.	.	8ff\
.	.	8gg\J
.	.	8ee-y\L
.	.	8gg\
.	.	8cc\
.	.	8ee-y\J
.	.	8a\L
.	.	8cc\
.	.	8f\
.	.	8ee-y\J
=28	=28	=28
2B-y\	.	4dd\
.	.	(8cc\L
.	.	8b-y\J)
8r	.	2.ee-y\
8G\	.	.
8F\L	.	.
8G\J	.	.
8E-y\L	.	.
8G\	.	.
8C\	.	4ee-y\
8G\J	.	.
=29	=29	=29
2AA-X/	5	4ee-y\
.	.	(8dd\L
.	.	8cc\J)
8r	.	2.ff\
8A-X\	6	.
8G\L	.	.
8A-X\J	.	.
8F\L	.	.
8A-X\	.	.
8D\	.	4ff\
8A-X\J	.	.
=30	=30	=30
2BB-y/	.	4ff\
.	.	&{8ee-y\L
.	.	8dd\J&)
8r	.	2.gg\
8B-y\	6 4	.
8A-X\L	.	.
8B-y\J	.	.
8G\L	6	.
8B-y\	.	.
8E-y\	.	4gg\
8B-y\J	.	.
!!LO:LB:g=original
=31	=31	=31
2C/	.	4gg\
.	.	8ff\L
.	.	8ee-y\J
8r	.	2.aa-X\
8c\	6-r 4	.
8B-y\L	.	.
8c\J	.	.
8A-X\L	6	.
8c\	.	.
8F\	.	4ccc\
8c\J	.	.
=32	=32	=32
2D\	#	4ff#X\
.	.	8een\L
.	.	8dd\J
8r	.	2.bb-y\
8G\	.	.
8F\L	.	.
8G\J	.	.
8E-y\L	.	.
8G\	.	.
8C\	.	8aan\L
8E-y\J	.	8gg\J
=33	=33	=33
2D\	#	4ff#X\
.	.	8een\L
.	.	8dd\J
8r	.	2.bb-y\
8G\	.	.
8F\L	.	.
8G\J	.	.
8E-y\L	.	.
8G\	.	.
8C\	.	8aa\L
8E-y\J	.	8gg\J
=34	=34	=34
2D\	#	4ff#X\
.	.	8een\L
.	.	8dd\J
2C#X/	7 5	4bb-y\
.	.	8aa\L
.	.	8gg\J
2D\	5 4	4.ff#X\t
.	X #	.
.	.	8gg\
=35	=35	=35
2GG/	.	(8gg\L
.	.	8bb-y\)
.	.	(8aa\
.	.	8bb-y\J)
1C/	7 n	(8gg\L
.	.	8bb-y\)
.	.	(8een\
.	.	8bb-y\J)
.	.	(8cc\L
.	.	8bb-y\)
.	.	(8aa-X\
.	.	8gg\J)
!!LO:PB:g=original
=36	=36	=36
8F\L	-	[1.aa-X\
8A-X\	.	.
8G\	.	.
8A-X\J	.	.
8F\L	.	.
8A-X\	.	.
8E-y\	.	.
8A-X\J	.	.
8D\L	.	.
8A-X\	.	.
8C\	.	.
8A-X\J	.	.
=37	=37	=37
1.BB-y/	7-r	8aa-y\L]
.	.	8aa-X\
.	.	(8gg\
.	.	8aa-X\J)
.	.	(8ff\L
.	.	8aa-X\)
.	.	(8dd\
.	.	8aa-X\J)
.	.	(8b-y\L
.	.	8aa-X\)
.	.	(8gg\
.	.	8ff\J)
=38	=38	=38
8E-y\L	.	[1.gg\
8G\	.	.
8F\	.	.
8G\J	.	.
8E-y\L	.	.
8G\	.	.
8D\	.	.
8G\J	.	.
8C\L	.	.
8G\	.	.
8BB-y\	.	.
8G\J	.	.
=39	=39	=39
1.AA-X/	7	8gg\L]
.	.	8gg\
.	.	(8ff\
.	.	8gg\J)
.	.	(8ee-y\L
.	.	8gg\)
.	.	(8cc\
.	.	8gg\J)
.	.	(8a-X\L
.	.	8gg\)
.	.	(8ff\
.	.	8ee-y\J)
=40	=40	=40
8D\L	.	[1.ff\
8F\	.	.
8E-y\	.	.
8F\J	.	.
8D\L	.	.
8F\	.	.
8C\	.	.
8F\J	.	.
8BBn\L	.	.
8F\	.	.
8AA-X\	.	.
8F\J	.	.
!!LO:LB:g=original
=41	=41	=41
1.GG/	7	8ff\L]
.	.	8ff\
.	.	(8ee-y\
.	.	8ff\J)
.	.	(8dd\L
.	.	8ff\)
.	.	(8bn\
.	.	8ff\J)
.	.	(8g\L
.	.	8ff\)
.	.	(8ee-y\
.	.	8dd\J)
=42	=42	=42
2C/	.	(8ee-y\L
.	.	8dd\)
.	.	(8cc\
.	.	8ee-y\J)
2D\	6	(8ff\L
.	.	8ee-y\)
.	.	(8dd\
.	.	8ff\J)
2E-y\	.	(8gg\L
.	.	8ff\)
.	.	(8ee-y\
.	.	8gg\J)
=43	=43	=43
2FF/	-	(8aa-X\L
.	.	8ff\)
.	.	(8dd\
.	.	8ff\J)
2r	.	(8bn/L
.	.	8dd/)
.	.	(8f/
.	.	8a-X/J)
2r	.	(8d/L
.	.	8f/)
.	.	(8Bn/
.	.	8d/J)
=44	=44	=44
2GG/	n	2G/
4r	.	4r
4GG/	.	4dd\
4BBn/	.	(8gg\L
.	.	8ff\)
4GG/	.	(8ee-y\
.	.	8dd\J)
=45	=45	=45
4C/	.	4ee-y\
4F\	6 5	(8dd\L
.	.	8cc\J)
2G\	5 4	2.bn\t
2GG/	n	.
.	.	4cc\
!!LO:LB:g=original
=46	=46	=46
2C/	.	2cc\
8r	.	2.een\
8c\	n	.
8B-y\L	.	.
8c\J	.	.
8G\L	6nr 4	.
8B-y\	.	.
8C\	.	(4ee\
8B-y\J	.	.
=47	=47	=47
2A-X\	6	2ff\)
8r	.	2.ff#X\
8d\	#	.
8c\L	.	.
8d\J	.	.
8An\L	6#/ 4	.
8c\	.	.
8D\	.	(4ff#y\
8c\J	.	.
=48	=48	=48
2B-y\	6	2gg\)
8r	.	2.bbn\
8G\	n	.
8F\L	.	.
8G\J	.	.
8D/L	6nr 4	.
8F/	.	.
8GG/	.	(4bb\
8F/J	.	.
=49	=49	=49
8E-y\L	6	2ccc\)
8c\	.	.
8B-y\	.	.
8c\J	.	.
8A-X\L	6	2cc\
8c\	.	.
8F\	.	.
8A-X\J	.	.
8BBn/L	6	4.gg\
8D/	.	.
8GG/	.	.
8BBn/J	5	8ff\
=50	=50	=50
4C/	.	4ee-y\
4F\	6 5	8dd\L
.	.	8cc\J
2G\	5 4	2.bn\t
2GG/	n	.
.	.	4cc\
=51	=51	=51
1.C/;	.	1.cc\;
==	==	==
*-	*-	*-
!!!SMS: RV 8 / Estienne Roger, Amsterdam [facs.]
!!!ENC: Fran Bennion; rev. 06/21 E. Correia
!!!END: 2004/11/29
!!!ONB: Converted from MuseData with musedata2hum on Sat May 11 12:07:52 2024
!!!YEM: (C) 2004, 2004 Center for Computer Assisted Research in the Humanities.
!!!system-decoration: [(s1,s2)]
!!!URL-info: https://wiki.ccarh.org/wiki/MuseData:_Antonio_Vivaldi#Op._2:_Sonate_a_violino_e_basso_per_il_cembalo
!!!URL-pdf: https://pdf.musedata.org/vivaldi-op02-no07.pdf#page=1 MuseData edition
!!!URL-pdf: http://conquest.imslp.info/files/imglnks/usimg/b/b7/IMSLP99075-PMLP183164-Vivaldi_-_Sonatas_Op2.pdf#page=24 Estienne Roger Amsterdam: Estienne Roger, No.2, n.d.[1711].
!!!URL-youtube: https://www.youtube.com/watch?v=SiijZmW9jKM&t=4346s L'Arte dell'Arco
!!!title: @{OTL}, mov. @{OMV}
!!!filter-chint: chint -mid
!!!EEV: 2024/05/11
!!!source-file: https://bitbucket.org/musedata/vivaldi/src/master/roger/op2/no07/stage2/01/01
!!!source-file: https://bitbucket.org/musedata/vivaldi/src/master/roger/op2/no07/stage2/01/02
